flaticon/symbols/projection.svg

<svg xmlns="http://www.w3.org/2000/svg" width="32" height="32" viewBox="0 0 24 24">
    <path d="M 22.683594 20.601562 C 18.796875 20.226562 15.644531 17.25 15 13.441406 L 19.199219 13.441406 C 19.992188 13.441406 20.640625 12.792969 20.640625 12 C 20.640625 11.207031 19.992188 10.558594 19.199219 10.558594 L 15 10.558594 C 15.644531 6.746094 18.796875 3.773438 22.683594 3.398438 C 23.433594 3.328125 24 2.710938 24 1.96875 C 24 1.5625 23.828125 1.171875 23.527344 0.898438 C 23.230469 0.625 22.832031 0.496094 22.4375 0.53125 C 17.042969 1.035156 12.757812 5.222656 12.09375 10.558594 L 11.90625 10.558594 C 11.242188 5.222656 6.957031 1.035156 1.566406 0.53125 C 1.171875 0.496094 0.769531 0.625 0.472656 0.898438 C 0.171875 1.171875 0 1.5625 0 1.96875 C 0 2.710938 0.566406 3.328125 1.316406 3.398438 C 5.203125 3.773438 8.355469 6.746094 9 10.558594 L 4.800781 10.558594 C 4.007812 10.558594 3.359375 11.207031 3.359375 12 C 3.359375 12.792969 4.007812 13.441406 4.800781 13.441406 L 9 13.441406 C 8.355469 17.25 5.203125 20.226562 1.316406 20.601562 C 0.566406 20.671875 0 21.289062 0 22.03125 C 0 22.4375 0.171875 22.828125 0.472656 23.101562 C 0.738281 23.34375 1.082031 23.476562 1.433594 23.476562 C 1.476562 23.476562 1.519531 23.472656 1.5625 23.46875 C 6.957031 22.960938 11.242188 18.777344 11.90625 13.4375 L 12.09375 13.4375 C 12.757812 18.777344 17.042969 22.960938 22.433594 23.46875 C 22.828125 23.5 23.230469 23.371094 23.527344 23.101562 C 23.828125 22.828125 24 22.4375 24 22.03125 C 24 21.289062 23.433594 20.671875 22.683594 20.601562 Z M 22.878906 22.390625 C 22.78125 22.484375 22.65625 22.523438 22.527344 22.511719 C 17.449219 22.035156 13.441406 18 13.003906 12.917969 L 12.964844 12.480469 L 11.035156 12.480469 L 10.996094 12.917969 C 10.558594 18 6.550781 22.035156 1.472656 22.511719 C 1.339844 22.523438 1.21875 22.484375 1.121094 22.390625 C 1.019531 22.300781 0.960938 22.167969 0.960938 22.03125 C 0.960938 21.785156 1.152344 21.582031 1.410156 21.554688 C 5.925781 21.121094 9.550781 17.523438 10.027344 13.011719 L 10.082031 12.480469 L 4.800781 12.480469 C 4.535156 12.480469 4.320312 12.265625 4.320312 12 C 4.320312 11.734375 4.535156 11.519531 4.800781 11.519531 L 10.082031 11.519531 L 10.027344 10.988281 C 9.550781 6.472656 5.925781 2.878906 1.410156 2.445312 C 1.152344 2.417969 0.960938 2.214844 0.960938 1.96875 C 0.960938 1.832031 1.019531 1.699219 1.121094 1.605469 C 1.21875 1.515625 1.339844 1.472656 1.472656 1.488281 C 6.550781 1.960938 10.558594 5.996094 10.996094 11.082031 L 11.035156 11.519531 L 12.964844 11.519531 L 13.003906 11.082031 C 13.441406 5.996094 17.449219 1.960938 22.527344 1.488281 C 22.65625 1.472656 22.78125 1.515625 22.878906 1.605469 C 22.980469 1.699219 23.039062 1.832031 23.039062 1.96875 C 23.039062 2.214844 22.847656 2.417969 22.589844 2.445312 C 18.074219 2.878906 14.449219 6.472656 13.972656 10.988281 L 13.917969 11.519531 L 19.199219 11.519531 C 19.464844 11.519531 19.679688 11.734375 19.679688 12 C 19.679688 12.265625 19.464844 12.480469 19.199219 12.480469 L 13.917969 12.480469 L 13.972656 13.007812 C 14.449219 17.523438 18.074219 21.117188 22.589844 21.554688 C 22.847656 21.578125 23.039062 21.785156 23.039062 22.03125 C 23.039062 22.167969 22.980469 22.300781 22.878906 22.390625 Z M 22.878906 22.390625"/>
</svg>

<svg xmlns="http://www.w3.org/2000/svg" width="32" height="32" viewBox="0 0 24 24">
    <path d="M22.684 20.602c-3.887-.375-7.04-3.352-7.684-7.16h4.2c.792 0 1.44-.649 1.44-1.442 0-.793-.648-1.441-1.44-1.441H15c.645-3.813 3.797-6.786 7.684-7.16A1.44 1.44 0 1 0 22.437.53 11.499 11.499 0 0 0 12.095 10.56h-.188A11.498 11.498 0 0 0 1.566.53 1.432 1.432 0 0 0 .473.898a1.44 1.44 0 0 0 .844 2.5c3.886.375 7.038 3.348 7.683 7.16H4.8c-.792 0-1.44.649-1.44 1.442 0 .793.648 1.441 1.44 1.441H9c-.645 3.809-3.797 6.786-7.684 7.16a1.44 1.44 0 0 0 .118 2.876c.043 0 .086-.004.129-.008a11.502 11.502 0 0 0 10.343-10.032h.188a11.502 11.502 0 0 0 10.34 10.032c.394.031.796-.098 1.093-.367a1.44 1.44 0 0 0-.844-2.5zm.195 1.789a.44.44 0 0 1-.352.12 10.542 10.542 0 0 1-9.523-9.593l-.04-.438h-1.929l-.039.438a10.542 10.542 0 0 1-9.523 9.594.435.435 0 0 1-.352-.121.482.482 0 0 1-.16-.36c0-.246.191-.449.45-.476 4.515-.434 8.14-4.032 8.616-8.543l.055-.532H4.801a.48.48 0 1 1 0-.96h5.281l-.055-.532c-.476-4.515-4.101-8.11-8.617-8.543a.487.487 0 0 1-.45-.476c0-.137.06-.27.161-.364a.433.433 0 0 1 .352-.117 10.536 10.536 0 0 1 9.523 9.594l.04.438h1.929l.039-.438a10.536 10.536 0 0 1 9.523-9.594.437.437 0 0 1 .352.117c.101.094.16.227.16.364 0 .246-.191.449-.45.476-4.515.434-8.14 4.028-8.616 8.543l-.055.532h5.281a.48.48 0 1 1 0 .96h-5.281l.055.528c.476 4.515 4.101 8.11 8.617 8.547.258.023.45.23.45.476 0 .137-.06.27-.161.36zm0 0"/>
</svg>
